T: East Clare
M: 4/4
L: 1/8
K: Dmix
D2FA d2cA|GEED EFGB|Add^c d=cAB|1 cAGE EDCE:|2 cAGE EDD2||aged cded|cBcd eg~g2|aged cded|cAGE EDD2|edeg aged|dcAB c2Bc|ADFD EGAB|cAGE EDCE||edeg aged|dcAB cAGB|A=FFE FGAB|cAGE EDCE||
